client/filepreviewer/pdfjs/web/images/toolbarButton-print.svg

<svg width="16" height="16" viewBox="0 0 16 16" fill="none" xmlns="http://www.w3.org/2000/svg">
<path d="M13 4H12V2C12 1.46957 11.7893 0.960859 11.4142 0.585786C11.0391 0.210714 10.5304 0 10 0L6 0C5.46957 0 4.96086 0.210714 4.58579 0.585786C4.21071 0.960859 4 1.46957 4 2V4H3C2.46957 4 1.96086 4.21071 1.58579 4.58579C1.21071 4.96086 1 5.46957 1 6V11C1 11.5304 1.21071 12.0391 1.58579 12.4142C1.96086 12.7893 2.46957 13 3 13H4V14C4 14.5304 4.21071 15.0391 4.58579 15.4142C4.96086 15.7893 5.46957 16 6 16H10C10.5304 16 11.0391 15.7893 11.4142 15.4142C11.7893 15.0391 12 14.5304 12 14V13H13C13.5304 13 14.0391 12.7893 14.4142 12.4142C14.7893 12.0391 15 11.5304 15 11V6C15 5.46957 14.7893 4.96086 14.4142 4.58579C14.0391 4.21071 13.5304 4 13 4V4ZM10.75 14.15L10.15 14.75H5.85L5.25 14.15V10H10.75V14.15ZM10.75 4H5.25V1.85L5.85 1.25H10.15L10.75 1.85V4V4ZM13 7.6L12.6 8H11.4L11 7.6V6.4L11.4 6H12.6L13 6.4V7.6Z" fill="black"/>
</svg>

<svg xmlns="http://www.w3.org/2000/svg" width="16" height="16" fill="none"><path d="M13 4h-1V2a2 2 0 0 0-.586-1.414A2 2 0 0 0 10 0H6a2 2 0 0 0-2 2v2H3a2 2 0 0 0-2 2v5a2 2 0 0 0 2 2h1v1a2 2 0 0 0 2 2h4a2 2 0 0 0 2-2v-1h1a2 2 0 0 0 2-2V6a2 2 0 0 0-2-2h0zm-2.25 10.15l-.6.6h-4.3l-.6-.6V10h5.5v4.15zm0-10.15h-5.5V1.85l.6-.6h4.3l.6.6V4h0zM13 7.6l-.4.4h-1.2l-.4-.4V6.4l.4-.4h1.2l.4.4v1.2z" fill="#000"/></svg>
